X:138
T:Lord Arthur (Masters)
%%VWML:SBG-1-2-375-0
F:http://www.vwml.org/record/SBG/1/2/375
Z:Original Sibelius transcriptions by M. & S. Graebe
M:3/8
I:linebreak $
K:C
V:1 treble nm="P1"
V:1
 A/c/ | eee | dcd | eAG | A2 | A | ddg | edc | A2 | A/B/ |$ cBc | dcd | edc | d2 | c/d/ | efe | %16
 dcd | eAG | A3 | %19

